src/icons/activemq.svg

<?xml version="1.0" encoding="UTF-8"?>
<svg xmlns="http://www.w3.org/2000/svg" xmlns:xlink="http://www.w3.org/1999/xlink" width="22.113001" height="32" viewBox="0 0 22.113001 32" version="1.1">
<g id="surface1">
<path style=" stroke:none;fill-rule:nonzero;fill:rgb(75.686276%,15.294118%,40.000001%);fill-opacity:1;" d="M 17.910156 20.40625 L 12.542969 20.390625 L 9.875 15.734375 L 12.570312 11.09375 L 17.9375 11.113281 L 20.605469 15.765625 Z M 17.910156 20.40625 "/>
<path style=" stroke:none;fill-rule:nonzero;fill:rgb(24.313726%,28.235295%,62.352943%);fill-opacity:1;" d="M 9.429688 25.273438 L 4.0625 25.257812 L 1.394531 20.601562 L 4.089844 15.960938 L 9.457031 15.980469 L 12.125 20.632812 Z M 9.429688 25.273438 "/>
<path style=" stroke:none;fill-rule:nonzero;fill:rgb(44.313726%,25.098041%,60.000002%);fill-opacity:1;" d="M 17.859375 30.164062 L 12.492188 30.144531 L 9.824219 25.492188 L 12.519531 20.851562 L 17.886719 20.867188 L 20.554688 25.523438 Z M 17.859375 30.164062 "/>
<path style=" stroke:none;fill-rule:nonzero;fill:rgb(47.058824%,57.647061%,17.254902%);fill-opacity:1;" d="M 9.476562 15.582031 L 4.109375 15.566406 L 1.441406 10.910156 L 4.136719 6.273438 L 9.503906 6.289062 L 12.171875 10.945312 Z M 9.476562 15.582031 "/>
<path style=" stroke:none;fill-rule:nonzero;fill:rgb(81.176472%,14.117648%,16.470589%);fill-opacity:1;" d="M 17.902344 10.703125 L 12.535156 10.6875 L 9.867188 6.03125 L 12.5625 1.394531 L 17.929688 1.410156 L 20.597656 6.066406 Z M 17.902344 10.703125 "/>
<path style=" stroke:none;fill-rule:nonzero;fill:rgb(100%,100%,100%);fill-opacity:1;" d="M 14.421875 6.054688 C 14.421875 5.605469 14.785156 5.242188 15.238281 5.242188 C 15.6875 5.242188 16.050781 5.605469 16.050781 6.054688 C 16.050781 6.503906 15.6875 6.867188 15.238281 6.867188 C 15.023438 6.867188 14.816406 6.78125 14.660156 6.628906 C 14.507812 6.476562 14.421875 6.269531 14.421875 6.054688 M 5.992188 10.925781 C 5.992188 10.476562 6.355469 10.109375 6.808594 10.109375 C 7.257812 10.109375 7.621094 10.476562 7.621094 10.925781 C 7.621094 11.140625 7.535156 11.347656 7.382812 11.5 C 7.230469 11.652344 7.023438 11.738281 6.808594 11.738281 C 6.59375 11.738281 6.386719 11.652344 6.230469 11.5 C 6.078125 11.347656 5.992188 11.140625 5.992188 10.925781 M 5.949219 20.621094 C 5.949219 20.171875 6.3125 19.804688 6.761719 19.804688 C 7.214844 19.804688 7.578125 20.171875 7.578125 20.621094 C 7.578125 21.070312 7.210938 21.433594 6.761719 21.433594 C 6.546875 21.433594 6.339844 21.347656 6.1875 21.195312 C 6.035156 21.042969 5.949219 20.835938 5.949219 20.621094 M 14.375 25.507812 C 14.363281 25.210938 14.515625 24.933594 14.773438 24.78125 C 15.027344 24.628906 15.347656 24.628906 15.601562 24.78125 C 15.859375 24.933594 16.011719 25.210938 16 25.507812 C 16 25.957031 15.636719 26.320312 15.1875 26.320312 C 14.738281 26.320312 14.375 25.957031 14.375 25.507812 M 14.375 25.507812 "/>
<path style="fill:none;stroke-width:0.602;stroke-linecap:round;stroke-linejoin:round;stroke:rgb(100%,100%,100%);stroke-opacity:1;stroke-miterlimit:4;" d="M 29.666153 10.874571 L 13.23873 20.279054 M 11.969733 22.617137 L 12.039267 41.556478 M 13.273497 43.564274 L 29.55316 53.246892 " transform="matrix(0.44942,0,0,0.44942,1.394,1.394)"/>
<path style=" stroke:none;fill-rule:nonzero;fill:rgb(100%,100%,100%);fill-opacity:1;" d="M 14.425781 15.753906 C 14.425781 15.304688 14.789062 14.941406 15.242188 14.941406 C 15.691406 14.941406 16.054688 15.304688 16.054688 15.753906 C 16.054688 16.203125 15.691406 16.566406 15.242188 16.566406 C 15.027344 16.566406 14.820312 16.480469 14.664062 16.328125 C 14.511719 16.175781 14.425781 15.96875 14.425781 15.753906 M 14.425781 15.753906 "/>
<path style="fill:none;stroke-width:0.602;stroke-linecap:round;stroke-linejoin:round;stroke:rgb(100%,100%,100%);stroke-opacity:1;stroke-miterlimit:4;" d="M 30.743931 11.639446 L 30.813465 30.570095 M 30.83954 33.342766 L 30.900382 52.273416 M 29.683536 32.690884 L 13.264805 42.095367 M 13.334339 22.060864 L 29.614002 31.743483 " transform="matrix(0.44942,0,0,0.44942,1.394,1.394)"/>
</g>
</svg>

<svg role="img" viewBox="0 0 22.113 32" xmlns="http://www.w3.org/2000/svg"><path d="m17.91 20.406-5.367-.015-2.668-4.657 2.695-4.64 5.368.02 2.667 4.652Zm0 0" style="stroke:none;fill-rule:nonzero;fill:rgb(75.686276%,15.294118%,40.000001%);fill-opacity:1"/><path d="m9.43 25.273-5.367-.015-2.668-4.656L4.09 15.96l5.367.02 2.668 4.652Zm0 0" style="stroke:none;fill-rule:nonzero;fill:rgb(24.313726%,28.235295%,62.352943%);fill-opacity:1"/><path d="m17.86 30.164-5.368-.02-2.668-4.652 2.696-4.64 5.367.015 2.668 4.656Zm0 0" style="stroke:none;fill-rule:nonzero;fill:rgb(44.313726%,25.098041%,60.000002%);fill-opacity:1"/><path d="m9.477 15.582-5.368-.016-2.668-4.656 2.696-4.637 5.367.016 2.668 4.656Zm0 0" style="stroke:none;fill-rule:nonzero;fill:rgb(47.058824%,57.647061%,17.254902%);fill-opacity:1"/><path d="m17.902 10.703-5.367-.015L9.867 6.03l2.695-4.636 5.368.015 2.668 4.656Zm0 0" style="stroke:none;fill-rule:nonzero;fill:rgb(81.176472%,14.117648%,16.470589%);fill-opacity:1"/><path d="M14.422 6.055c0-.45.363-.813.816-.813a.812.812 0 1 1 0 1.625.813.813 0 0 1-.816-.812m-8.43 4.871a.814.814 0 1 1 1.63 0 .812.812 0 0 1-.813.812.813.813 0 0 1-.817-.812m-.042 9.695a.814.814 0 1 1 .813.813.812.812 0 0 1-.814-.813m8.426 4.887a.813.813 0 1 1 1.625 0 .812.812 0 1 1-1.625 0m0 0" style="stroke:none;fill-rule:nonzero;fill:rgb(100%,100%,100%);fill-opacity:1"/><path d="M29.666 10.875 13.239 20.28m-1.27 2.338.07 18.94m1.234 2.007 16.28 9.683" style="fill:none;stroke-width:0.602;stroke-linecap:round;stroke-linejoin:round;stroke:rgb(100%,100%,100%);stroke-opacity:1;stroke-miterlimit:4" transform="translate(1.394 1.394)scale(.44942)"/><path d="M14.426 15.754a.814.814 0 1 1 1.629 0c0 .45-.364.812-.813.812a.813.813 0 0 1-.816-.812m0 0" style="stroke:none;fill-rule:nonzero;fill:rgb(100%,100%,100%);fill-opacity:1"/><path d="m30.744 11.64.07 18.93m.025 2.774.061 18.93m-1.217-19.582-16.418 9.404m.07-20.034 16.279 9.682" style="fill:none;stroke-width:0.602;stroke-linecap:round;stroke-linejoin:round;stroke:rgb(100%,100%,100%);stroke-opacity:1;stroke-miterlimit:4" transform="translate(1.394 1.394)scale(.44942)"/></svg>
